X:197
T: ACH BRUDER ICH BIN JETZT GESCHOSSEN
N: E1338A
O: Europa, Mitteleuropa, Deutschland
R: Staende -, Soldaten -, Kriegs - Lied
M: 4/4
L: 1/16
K: Eb
E2G2 | B4B2e2B4G2E2 | c4B4z4
E2G2 | B4B2B2c2B2A2G2 | G4F4z4
E2G2 | B6G2A2G2A2B2 | G4z8
e4 | c4B2A2G2A2F4 | E4z2
GAB2B2B2B2 | B2G2A2F2z4
e4 | c4B2A2G2A2F4 | E4z8

@@@ Tune index: 4881
